svg/playlist_star.svg

<svg xmlns="http://www.w3.org/2000/svg" viewBox="0 0 24 24"><path d="m17 19.09 2.45 1.49-.65-2.81 2.2-1.88-2.89-.25L17 13l-1.13 2.64-2.87.25 2.18 1.88-.68 2.81zM4 14h8v2H4zm0-8h12v2H4zm0 4h12v2H4z"/></svg>

<?xml version="1.0" encoding="UTF-8"?><!DOCTYPE svg PUBLIC "-//W3C//DTD SVG 1.1//EN" "http://www.w3.org/Graphics/SVG/1.1/DTD/svg11.dtd"><svg xmlns="http://www.w3.org/2000/svg" xmlns:xlink="http://www.w3.org/1999/xlink" version="1.1" id="mdi-playlist-star" width="24" height="24" viewBox="0 0 24 24"><path d="M17,19.09L19.45,20.58L18.8,17.77L21,15.89L18.11,15.64L17,13L15.87,15.64L13,15.89L15.18,17.77L14.5,20.58L17,19.09M4,14H12V16H4V14M4,6H16V8H4V6M4,10H16V12H4V10Z" /></svg>
